X: 39271
T: Tailor's Twist, The
R: hornpipe
M: 4/4
K: Dmajor
F>E|D>A,F>D A>Fd>A|B>ge>d c>ba>g|f>ed>c B>fe>d|c>dB>c A>GF>E|
D>A,F>D A>Fd>A|B>ge>d c>ba>g|f>ed>c B>ge>c|d2 (3edc d2:|
|:f>g|a3 f d>ef>a|b>ag>f e>aA>a|g2 g2 (3 Bcd e>f|g>af>g e>df>e|
d2 (3fed d>DE>A|B>ge>d c>ba>g|f>ed>c B>ge>c|d2 (3edc d2:|

